X:182
T:MacGregor's March
T:Rob Roy's March
S:Howard & Co's Melodion Tutor, London, n.d.
Z:Nigel Gatherer
N:Transposed from C for comparison
M:2/4
L:1/8
K:D
AA/B/ AA/B/|Ad d2|BB/c/ BB/c/|Be Bc|AA/B/ AA/B/|
Ad d2|Be Bc|d z d2::f2 f2|fB B2|
BB/c/ Bc|dA A2|f2 f2|fB B2|Be Bc|d z d2:|
<end>
<start>
